X: 42973
T: Willie Jamieson's Delight
R: jig
M: 6/8
K: Amajor
B|:cAF ECE|A,CE Ace|dBA GAB|gfe dcB|
cAF ECE|A,CE Ace|dBb ged|cAG A2B:|
cff fed|cBA FED|CFF AGF|Gcc dcB|
cff fed|cBA FED|CFF GAB|AFF F2B||
cff aff|cBA FED|CFF AGF|Gcc dcB|
cff fed|cBA FED|CFF GAB|AFF F2||

